X:604
T: O ENGEL ALLERSCHOENSTES KIND
N: E0561
O: Europa, Mitteleuropa, Deutschland, Hessen, Lahn - Kreis, Dill - Kreis
R: Liebes - Lied
M: 3/4
L: 1/16
K: G
D2 | D2G2G6B2 | B3AA4z2
GA | B4d4c3B | B4A4z2
G2 | G2e2d6e2 | d2B2c6
d2 | B2A2B2c2d4 | c4B4z2

